X: 11325
T: Eamon Coyne's
R: reel
M: 4/4
K: Gmajor
BcdB GABG|ADFA dcBA|BcdB GABG|ADFA G2 GA:|
|:BGBd gfed|^cBce agfe|fgaf defd|eA^ce d2 ef|
gfed ^ceag|fde^c d^cBA|BcdB GABD|ADFA G2 GA:|
BcdB GABG|AD (3DDD cAFA|BcdB GABG|ADEF G3A|
BcdB GABG|AD (3DDD AD (3DDD|BcdB GABG|ADEF G3A||
|:BGBd gfed|cAce agfe|fgaf defd|ed^ce d2ef|
gfed efa2-|agfe dcBA|BcdB GABG|ADFA G4:|

